X: 10
T: Ailen around
%R: waltz
B: "The Hibernian Muse" p.6 #2
F: http://imslp.org/wiki/The_Hibernian_Muse_%28Various%29
Z: 2015 John Chambers <jc:trillian.mit.edu>
N: 2nd strain has 13 bars.
P: No. X.
M: 3/4
L: 1/8
K: G
% - - - - - - - - - - - - - - - - - - - - - - - - - - - - -
V: 1
|:\
D2E2TF2 | G3AB2 | D2E2F2 | G4D2 |\
(EDEG)A2 | T{B}A3AB2 | D2E2TF2 | G6 :|\
|:\
(TcB)(cd)(cd) | c2E2E2 |
(TBA)(Bc)(Bc) | B2D2D2 |\
TcBc4 | TBAB4 | TAGABAB | (AGFE)D2 |\
Hd4 (ef/g/) |\
{f}edcB AF | TG3AB2 | D2E2F2 | G4z2 :|
% - - - - - - - - - - - - - - - - - - - - - - - - - - - - -
V: 2 clef=bass middle=d
|:\
g2c'2a2 | b2a2g2 | B2c2d2 | G2A2B2 |\
c6 | c'ba2g2 | B2c2d2 | g2d2G2 :|\
|:\
A6 | abc'bc'a |
g6 | gababg |\
a4A2 | g4G2 | c2A2c2 | d6 |\
HB4z2 |\
c2e2c2 | B2A2G2 | B2c2d2 | G4z2 :|

%%sep 2 1 500
%%sep 1 1 500

